X:1
T:Ved Havet.
T:W. Peterson-Berger (1867-1942)
T:Text: I.S.C. Welhaven
T:Ved Havet.
T:©CPDL Edition may be freely distributed, duplicated, performed and recorded PA Aglert
T:©CPDL Edition may be freely distributed, duplicated, performed and recorded PA Aglert
T:©CPDL Edition may be freely distributed, duplicated, performed and recorded PA Aglert
T:©CPDL Edition may be freely distributed, duplicated, performed and recorded PA Aglert
T:©CPDL Edition may be freely distributed, duplicated, performed and recorded PA Aglert
T:©CPDL Edition may be freely distributed, duplicated, performed and recorded PA Aglert
C:W Peterson-Berger
Z:©CPDL Edition may be freely distributed, duplicated, performed and recorded
Z:PA Aglert
%%score [ 1 2 3 4 ]
L:1/8
Q:1/4=120
M:12/8
K:Dmin
V:1 treble nm="S"
V:2 treble nm="A"
V:3 treble-8 nm="T"
V:4 bass nm="B"
V:1
"^Andante maestoso"!mp! (D/D/) | D3 D2 D (D3 D2) D |"^cresc." E3 E2 E E3- E2 E | F3 E2 F G3 F2 G | %4
w: Ved det|mæg- ti- ge Hav * hvor|kys- ten er steil * er|ver- den lukt u- de, der|
w: De *|sy- ner der sti- ge af|Van- de- nes skjöd * skal|far- ves og ån- de i|
 A3 A2 A A3- A2 A |!f! (d3 d2) d A3- A2!mp! A | (d6!>(! A3) G3!>)! | A6- A3- A z!p! D | %8
w: ser du i speil * dit|tan- * ke- liv, * dit|tan- * ke-|liv. * * Af|
w: mor- ge- nens glöd * og|mil- de- re luft, * og|mil- de- re|luft. * * Ja|
 D3 D2 D D3 D2 D |"^cresc." D3 D2 D D3 D2 D | D3 D2 D D3 D2 D |!f! D3 D2 D D3 D2 D | %12
w: Ha- vet kan sti- ge et|læng- se- lens ri- ge, av|Ha- vet kan sti- ge et|læng- se- lens ri- ge ved|
w: fjel- de og tår- ne af|böl- ger- ne bår- ne, ja|fjel- de og tår- ne af|böl- ger- ne bår- ne skal|
!mp! (D3 D2) D!>(! D3 D2 D!>)! |!p! D6- D3- D z!mf! A | A3 A2 A B3 B2 B | B3- BcB A3- A!p!(FG) | %16
w: ån- * dens tryl- len- de|bliv. * * Mens|böl- ger- ne glid- de og|nyn- * ne der- til, * kan du|
w: svö- bes i ro- ser- nes|duft. * * Langt|u- de hvor pal- mer- ne|mö- * de dit blik, * der *|
!<(! A3 A2 A c3 c2!<)! c | (d3 d2) d!>(! c3- c2!>)! c |!p!!<(! (A6 G3)!<)! G3 | A6- A3- A z z | %20
w: vug- ges og bæ- res så|langt * du vil * i|tan- * kens|båt, * *|
w: vox- er en dru- e med|lin- dren- de drik * for|al * din|kval. * *|
 z6 z2 z z2!mp! ^G | ^G3 G2 G A3 E2 =G | F3 E3 z6 | z6 z2 z z2!mf! ^c | ^c3 c2 c d3 A2 =c | %25
w: ja|langt fra dögn- tum- me- lens|gang- e|ja|langt fra dögn- tum- me- lens|
w: O|bring den O bring den til-|ba- ge|O|bring den O bring den til-|
 B3 A3 z2 z!<(! D3!<)! | (A3 G2) F F3!>(! E2 D!>)! |!<(! (C6!<)! D3-) D z!pp! D | %28
w: gang- e med|al de- res lat- ter og|gråd, * * med|
w: ba- ge til|sav- * nets luk- ke- de|dal, * * til|
"^cresc." (D6 D3) D3 | D6 E3 E3 |!mf! ^F6-!>(! F3-!>)! F2 z |] %31
w: al de- res|lat- ter og|gråd. * *|
w: sav- * nets|luk- ke- de|dal. * *|
V:2
!mp! (D/D/) | D3 D2 D (D3 D2) D |"^cresc." D3 D2 D D3- D2 D | D3 D2 D D3 D2 D | D3 D2 D D3- D2 D | %5
w: Ved det|mæg- ti- ge Hav * hvor|kys- ten er steil * er|ver- den lukt u- de, der|ser du i speil * dit|
w: De *|sy- ner der sti- ge af|Van- de- nes skjöd * skal|far- ves og ån- de i|mor- ge- nens glöd * og|
!f! (D3 D2) D D3- D2!mp! D | (D6!>(! D3) D3!>)! | ^C6- C3- C z!p! D | D3 D2 D D3 D2 D | %9
w: tan- * ke- liv, * dit|tan- * ke-|liv. * * Af|Ha- vet kan sti- ge et|
w: mil- de- re luft, * og|mil- de- re|luft. * * Ja|fjel- de og tår- ne af|
"^cresc." C3 C2 C C3 C2 C | B,3 C2 B, A,3 B,2 A, |!f! G,3 G,2 G, G,3 G,2 G, | %12
w: læng- se- lens ri- ge, av|Ha- vet kan sti- ge et|læng- se- lens ri- ge ved|
w: böl- ger- ne bår- ne, ja|fjel- de og tår- ne af|böl- ger- ne bår- ne skal|
!mp! (A,3 A,2) A,!>(! =B,3 _B,2 B,!>)! |!p! A,6- A,3- A, z!mf! A | A3 A2 A A3 A2 A | %15
w: ån- * dens tryl- len- de|bliv. * * Mens|böl- ger- ne glid- de og|
w: svö- bes i ro- ser- nes|duft. * * Langt|u- de hvor pal- mer- ne|
 G3- GAG D3- D!p!(DD) |!<(! D3 D2 D E3 E2!<)! E | (F3 F2) F!>(! E3- E2!>)! E | %18
w: nyn- * ne der- til, * kan du|vug- ges og bæ- res så|langt * du vil * i|
w: mö- * de dit blik, * der *|vox- er en dru- e med|lin- dren- de drik * for|
!p!!<(! (D6 =B,3) D3!<)! | ^C6- C3- C z z | z6 z2 z z2!mp! D | D3 D2 D ^C3 C2 C | D3 ^C3 z6 | %23
w: tan- * kens|båt, * *|ja|langt fra dögn- tum- me- lens|gang- e|
w: al * din|kval. * *|O|bring den O bring den til-|ba- ge|
 z6 z2 z z2!mf! G | G3 G2 G ^F3 F2 F | G3 ^F3 z2 z!<(! D3!<)! | (B,3 B,2) B, B,3!>(! B,2 B,!>)! | %27
w: ja|langt fra dögn- tum- me- lens|gang- e med|al de- res lat- ter og|
w: O|bring den O bring den til-|ba- ge til|sav- * nets luk- ke- de|
!<(! A,6-!<)! A,3- A, z!pp! D |"^cresc." (D6 ^C3) =C3 | =B,6 _B,3 B,3 | %30
w: gråd, * * med|al de- res|lat- ter og|
w: dal, * * til|sav- * nets|luk- ke- de|
!mf! A,6-!>(! A,3-!>)! A,2 z |] %31
w: gråd. * *|
w: dal. * *|
V:3
!mp! (D/D/) | D3 D2 D (D3 D2) D |"^cresc." E3 E2 E E3- E2 E | F3 E2 F G3 F2 G | A3 A2 A A3- A2 A | %5
w: Ved det|mæg- ti- ge Hav * hvor|kys- ten er steil * er|ver- den lukt u- de, der|ser du i speil * dit|
w: De *|sy- ner der sti- ge af|Van- de- nes skjöd * skal|far- ves og ån- de i|mor- ge- nens glöd * og|
!f! (F3 F2) F F3- F2!mp! F | (F6!>(! F3) E3!>)! | E6- E3- E z!p! D | D3 D2 D D3 D2 D | %9
w: tan- * ke- liv, * dit|tan- * ke-|liv. * * Af|Ha- vet kan sti- ge et|
w: mil- de- re luft, * og|mil- de- re|luft. * * Ja|fjel- de og tår- ne af|
"^cresc." D3 D2 D D3 D2 D | D3 D2 D D3 D2 D |!f! D3 D2 D D3 D2 D |!mp! (^F3 F2) F!>(! G3 G2 G!>)! | %13
w: læng- se- lens ri- ge, av|Ha- vet kan sti- ge et|læng- se- lens ri- ge ved|ån- * dens tryl- len- de|
w: böl- ger- ne bår- ne, ja|fjel- de og tår- ne af|böl- ger- ne bår- ne skal|svö- bes i ro- ser- nes|
!p! ^F6- F3- F z!mf! A | A3 A2 A B3 B2 B | B3- BcB A3- A!p!(DE) |!<(! F3 F2 F G3 G2!<)! G | %17
w: bliv. * * Mens|böl- ger- ne glid- de og|nyn- * ne der- til, * kan du|vug- ges og bæ- res så|
w: duft. * * Langt|u- de hvor pal- mer- ne|mö- * de dit blik, * der *|vox- er en dru- e med|
 (B3 B2) B!>(! G3- G2 G!>)! |!p!!<(! (F6 D3)!<)! D3 | E6- E3- E z z | z6 z2 z z2!mp! B | %21
w: langt * du vil * i|tan- * kens|båt, * *|ja|
w: lin- dren- de drik * for|al * din|kval. * *|O|
 B3 B2 B A3 A2 A | A3 A3 z6 | z6 z2 z z2!mf! e | e3 _e2 e d3 d2 d | d3 d3 z2 z!<(! D3!<)! | %26
w: langt fra dögn- tum- me- lens|gang- e|ja|langt fra dögn- tum- me- lens|gang- e med|
w: bring den O bring den til-|ba- ge|O|bring den O bring den til-|ba- ge til|
 (D3 D2) D A3!>(! G2 F!>)! |!<(! (E6!<)! ^F3-) F z!pp! D |"^cresc." (D6 E3) ^F3 | G6 G3 G3 | %30
w: al de- res lat- ter og|gråd, * * med|al de- res|lat- ter og|
w: sav- * nets luk- ke- de|dal, * * til|sav- * nets|luk- ke- de|
!mf! d6-!>(! d3-!>)! d2 z |] %31
w: gråd. * *|
w: dal. * *|
V:4
!mp! (D,/D,/) | D,3 D,2 D, (D,3 D,2) D, |"^cresc." D,3 D,2 D, D,3- D,2 D, | D,3 D,2 D, D,3 D,2 D, | %4
w: Ved det|mæg- ti- ge Hav * hvor|kys- ten er steil * er|ver- den lukt u- de, der|
w: De *|sy- ner der sti- ge af|Van- de- nes skjöd * skal|far- ves og ån- de i|
 D,3 D,2 D, D,3- D,2 D, |!f! (B,,3 B,,2) B,, D,3- D,2!mp! D, | (B,,6!>(! B,,3) B,,3!>)! | %7
w: ser du i speil * dit|tan- * ke- liv, * dit|tan- * ke-|
w: mor- ge- nens glöd * og|mil- de- re luft, * og|mil- de- re|
 A,,6- A,,3- A,, z!p! D, | D,3 D,2 D, D,3 D,2 D, |"^cresc." C,3 C,2 C, C,3 C,2 C, | %10
w: liv. * * Af|Ha- vet kan sti- ge et|læng- se- lens ri- ge, av|
w: luft. * * Ja|fjel- de og tår- ne af|böl- ger- ne bår- ne, ja|
 B,,3 C,2 B,, A,,3 B,,2 A,, |!f! G,,3 G,,2 G,, G,,3 G,,2 G,, | %12
w: Ha- vet kan sti- ge et|læng- se- lens ri- ge ved|
w: fjel- de og tår- ne af|böl- ger- ne bår- ne skal|
!mp! (A,,3 A,,2) A,,!>(! A,,3 A,,2 A,,!>)! |!p! D,6- D,3- D, z!mf! A, | A,3 A,2 A, A,3 A,2 A, | %15
w: ån- * dens tryl- len- de|bliv. * * Mens|böl- ger- ne glid- de og|
w: svö- bes i ro- ser- nes|duft. * * Langt|u- de hvor pal- mer- ne|
 G,3- G,A,G, D,3- D,!p!(D,D,) |!<(! D,3 D,2 D, C,3 C,2!<)! C, | %17
w: nyn- * ne der- til, * kan du|vug- ges og bæ- res så|
w: mö- * de dit blik, * der *|vox- er en dru- e med|
 (B,,3 B,,2) B,,!>(! C,3- C,2 C,!>)! |!p!!<(! (D,6 G,,3)!<)! =B,,3 | A,,6- A,,3- A,, z!mp! A,, | %20
w: langt * du vil * i|tan- * kens|båt, * * ja|
w: lin- dren- de drik * for|al * din|kval. * * O|
 B,,3 B,,2 B,, (F,6- | F,6 E,6 | D,3) A,,3 z2 z z2!mf! A,, |!<(! B,,3 B,,2 B,,!<)! (B,6- | %24
w: langt fra de trang-||* e dögn-|tum- me- lens gang-|
w: bring den til- ba-||* ge når|hjem du må dra-|
 B,6 A,6 | G,3) D,3 z2 z!<(! D,3!<)! | (G,,3 G,,2) G,, G,,3!>(! G,,2 G,,!>)! | %27
w: |* e med|al de- res lat- ter og|
w: |* ge til|sav- * nets luk- ke- de|
!<(! (A,,6!<)! D,3-) D, z!pp! D, |"^cresc." (D,6 D,3) D,3 | D,6 D,3 D,3 | %30
w: gråd, * * med|al de- res|lat- ter og|
w: dal, * * til|sav- * nets|luk- ke- de|
!mf! D,6-!>(! D,3-!>)! D,2 z |] %31
w: gråd. * *|
w: dal. * *|

